public/theme/icons/portfolio.svg

<svg width="16" height="22" viewBox="0 0 16 22" fill="none" xmlns="http://www.w3.org/2000/svg">
<mask id="path-1-inside-1_215_4272" fill="white">
<path fill-rule="evenodd" clip-rule="evenodd" d="M9.92052 1.01983V4.22377C9.92052 5.7389 11.231 6.96889 12.8453 6.96889H15.9586C15.9734 7.07485 15.9809 7.18229 15.9809 7.29051V18.6692C15.9809 19.9564 14.9374 21 13.6501 21H2.32888C1.0416 21 -0.00195312 19.9564 -0.00195312 18.6692V3.33083C-0.00195312 2.04355 1.0416 1 2.32888 1H9.61708C9.7191 1 9.82044 1.00669 9.92052 1.01983ZM10.9506 1.41913V4.22584C10.9506 5.20623 11.7985 6.0021 12.8431 6.0021H15.5925C15.5033 5.86775 15.3999 5.74202 15.283 5.62731L11.25 1.66764C11.1567 1.576 11.0565 1.493 10.9506 1.41913Z"/>
</mask>
<path d="M9.92052 1.01983H11.4189V-0.29471L10.1156 -0.465818L9.92052 1.01983ZM15.9586 6.96889L17.4427 6.76216L17.2628 5.4705H15.9586V6.96889ZM10.9506 1.41913L11.8078 0.190182L9.45219 -1.45298V1.41913H10.9506ZM10.9506 4.22584L12.449 4.22585V4.22584H10.9506ZM15.5925 6.0021V7.50049H18.3844L16.8411 5.17386L15.5925 6.0021ZM15.283 5.62731L14.2333 6.69651L14.2333 6.69651L15.283 5.62731ZM11.25 1.66764L12.2998 0.598439L12.2998 0.598437L11.25 1.66764ZM11.4189 4.22377V1.01983H8.42212V4.22377H11.4189ZM12.8453 5.4705C11.9676 5.4705 11.4189 4.8233 11.4189 4.22377H8.42212C8.42212 6.65451 10.4944 8.46729 12.8453 8.46729V5.4705ZM15.9586 5.4705H12.8453V8.46729H15.9586V5.4705ZM14.4746 7.17563C14.4798 7.21341 14.4825 7.25177 14.4825 7.29051H17.4793C17.4793 7.1128 17.4669 6.93629 17.4427 6.76216L14.4746 7.17563ZM14.4825 7.29051V18.6692H17.4793V7.29051H14.4825ZM14.4825 18.6692C14.4825 19.1289 14.1098 19.5016 13.6501 19.5016V22.4984C15.7649 22.4984 17.4793 20.784 17.4793 18.6692H14.4825ZM13.6501 19.5016H2.32888V22.4984H13.6501V19.5016ZM2.32888 19.5016C1.86914 19.5016 1.49644 19.1289 1.49644 18.6692H-1.50035C-1.50035 20.784 0.21406 22.4984 2.32888 22.4984V19.5016ZM1.49644 18.6692V3.33083H-1.50035V18.6692H1.49644ZM1.49644 3.33083C1.49644 2.87109 1.86914 2.49839 2.32888 2.49839V-0.498393C0.214057 -0.498393 -1.50035 1.21601 -1.50035 3.33083H1.49644ZM2.32888 2.49839H9.61708V-0.498393H2.32888V2.49839ZM9.61708 2.49839C9.65359 2.49839 9.68978 2.50079 9.72547 2.50547L10.1156 -0.465818C9.95111 -0.487408 9.78461 -0.498393 9.61708 -0.498393V2.49839ZM9.45219 1.41913V4.22584H12.449V1.41913H9.45219ZM9.45219 4.22584C9.45218 6.12183 11.0619 7.50049 12.8431 7.50049V4.50371C12.7045 4.50371 12.5973 4.45173 12.5306 4.38907C12.4654 4.32789 12.449 4.26985 12.449 4.22585L9.45219 4.22584ZM12.8431 7.50049H15.5925V4.50371H12.8431V7.50049ZM14.2333 6.69651C14.2751 6.73754 14.312 6.78242 14.3438 6.83034L16.8411 5.17386C16.6947 4.95308 16.5247 4.74649 16.3328 4.55811L14.2333 6.69651ZM10.2003 2.73683L14.2333 6.69651L16.3328 4.55812L12.2998 0.598439L10.2003 2.73683ZM10.0933 2.64808C10.1311 2.67442 10.1669 2.70405 10.2003 2.73684L12.2998 0.598437C12.1465 0.447957 11.9819 0.311575 11.8078 0.190182L10.0933 2.64808Z" fill="url(#paint0_linear_215_4272)" mask="url(#path-1-inside-1_215_4272)"/>
<rect x="4.20811" y="14.2081" width="7.58378" height="0.41622" rx="0.20811" fill="#7F7F7F" stroke="url(#paint1_linear_215_4272)" stroke-width="0.41622"/>
<rect x="4.20811" y="16.2059" width="7.58378" height="0.41622" rx="0.20811" fill="#7F7F7F" stroke="url(#paint2_linear_215_4272)" stroke-width="0.41622"/>
<rect x="4.20811" y="10.2081" width="3.58378" height="0.41622" rx="0.20811" fill="#7F7F7F" stroke="url(#paint3_linear_215_4272)" stroke-width="0.41622"/>
<rect x="4.20811" y="12.2059" width="3.58378" height="0.41622" rx="0.20811" fill="#7F7F7F" stroke="url(#paint4_linear_215_4272)" stroke-width="0.41622"/>
<defs>
<linearGradient id="paint0_linear_215_4272" x1="-0.00195308" y1="12.5" x2="15.9809" y2="12.5" gradientUnits="userSpaceOnUse">
<stop stop-color="#2036FF"/>
<stop offset="1" stop-color="#C348B0"/>
</linearGradient>
<linearGradient id="paint1_linear_215_4272" x1="4" y1="14.4787" x2="12" y2="14.4787" gradientUnits="userSpaceOnUse">
<stop stop-color="#2036FF"/>
<stop offset="1" stop-color="#C348B0"/>
</linearGradient>
<linearGradient id="paint2_linear_215_4272" x1="4" y1="16.4765" x2="12" y2="16.4765" gradientUnits="userSpaceOnUse">
<stop stop-color="#2036FF"/>
<stop offset="1" stop-color="#C348B0"/>
</linearGradient>
<linearGradient id="paint3_linear_215_4272" x1="4" y1="10.4787" x2="8" y2="10.4787" gradientUnits="userSpaceOnUse">
<stop stop-color="#2036FF"/>
<stop offset="1" stop-color="#C348B0"/>
</linearGradient>
<linearGradient id="paint4_linear_215_4272" x1="4" y1="12.4765" x2="8" y2="12.4765" gradientUnits="userSpaceOnUse">
<stop stop-color="#2036FF"/>
<stop offset="1" stop-color="#C348B0"/>
</linearGradient>
</defs>
</svg>

<svg xmlns="http://www.w3.org/2000/svg" width="16" height="22" fill="none">
    <mask id="b" fill="#fff">
        <path fill-rule="evenodd"
              d="M9.92 1.02v3.204c0 1.515 1.311 2.745 2.925 2.745h3.114q.021.159.022.322v11.378A2.33 2.33 0 0 1 13.65 21H2.328a2.33 2.33 0 0 1-2.331-2.33V3.33A2.33 2.33 0 0 1 2.328 1h7.29q.152 0 .303.02m1.03.4v2.806c0 .98.849 1.776 1.893 1.776h2.75a2.3 2.3 0 0 0-.31-.375l-4.033-3.96a2.3 2.3 0 0 0-.3-.248"
              clip-rule="evenodd"/>
    </mask>
    <path fill="url(#a)"
          d="M9.92 1.02h1.499V-.295l-1.303-.17zm6.039 5.949 1.484-.207-.18-1.291h-1.304zm-5.008-5.55L11.808.19 9.452-1.453v2.872zm0 2.807h1.498zm4.641 1.776V7.5h2.792l-1.543-2.326zm-.309-.375-1.05 1.07zm-4.033-3.96L12.3.599zm.169 2.557V1.02H8.422v3.204zm1.426 1.247c-.877 0-1.426-.648-1.426-1.247H8.422c0 2.43 2.072 4.243 4.423 4.243zm3.114 0h-3.114v2.996h3.114zm-1.484 1.705a1 1 0 0 1 .008.115h2.996q0-.268-.036-.529zm.008.115v11.378h2.996V7.291zm0 11.378c0 .46-.373.833-.833.833v2.996a3.83 3.83 0 0 0 3.83-3.829zm-.833.833H2.33v2.996H13.65zm-11.321 0a.83.83 0 0 1-.833-.833H-1.5a3.83 3.83 0 0 0 3.829 3.83zm-.833-.833V3.331H-1.5v15.338zm0-15.338c0-.46.373-.833.833-.833V-.498a3.83 3.83 0 0 0-3.83 3.829zm.833-.833h7.288V-.498H2.33zm7.288 0q.056 0 .108.007l.39-2.97a4 4 0 0 0-.498-.033zM9.452 1.42v2.807h2.997V1.419zm0 2.807c0 1.896 1.61 3.274 3.391 3.274V4.504a.45.45 0 0 1-.312-.115c-.066-.061-.082-.12-.082-.163zM12.843 7.5h2.75V4.504h-2.75zm1.39-.803a1 1 0 0 1 .11.133l2.498-1.656a4 4 0 0 0-.508-.616zM10.2 2.737l4.033 3.96 2.1-2.139L12.3.598zm-.107-.089a1 1 0 0 1 .107.089L12.3.598a4 4 0 0 0-.492-.408z"
          mask="url(#b)"/>
    <rect width="7.584" height=".416" x="4.208" y="14.208" fill="#7F7F7F" stroke="url(#c)" stroke-width=".416"
          rx=".208"/>
    <rect width="7.584" height=".416" x="4.208" y="16.206" fill="#7F7F7F" stroke="url(#d)" stroke-width=".416"
          rx=".208"/>
    <rect width="3.584" height=".416" x="4.208" y="10.208" fill="#7F7F7F" stroke="url(#e)" stroke-width=".416"
          rx=".208"/>
    <rect width="3.584" height=".416" x="4.208" y="12.206" fill="#7F7F7F" stroke="url(#f)" stroke-width=".416"
          rx=".208"/>
    <defs>
        <linearGradient id="a" x1="-.002" x2="15.981" y1="12.5" y2="12.5" gradientUnits="userSpaceOnUse">
            <stop stop-color="#2036FF"/>
            <stop offset="1" stop-color="#C348B0"/>
        </linearGradient>
        <linearGradient id="c" x1="4" x2="12" y1="14.479" y2="14.479" gradientUnits="userSpaceOnUse">
            <stop stop-color="#2036FF"/>
            <stop offset="1" stop-color="#C348B0"/>
        </linearGradient>
        <linearGradient id="d" x1="4" x2="12" y1="16.477" y2="16.477" gradientUnits="userSpaceOnUse">
            <stop stop-color="#2036FF"/>
            <stop offset="1" stop-color="#C348B0"/>
        </linearGradient>
        <linearGradient id="e" x1="4" x2="8" y1="10.479" y2="10.479" gradientUnits="userSpaceOnUse">
            <stop stop-color="#2036FF"/>
            <stop offset="1" stop-color="#C348B0"/>
        </linearGradient>
        <linearGradient id="f" x1="4" x2="8" y1="12.476" y2="12.476" gradientUnits="userSpaceOnUse">
            <stop stop-color="#2036FF"/>
            <stop offset="1" stop-color="#C348B0"/>
        </linearGradient>
    </defs>
</svg>
